icons/out/24/close.svg

<svg viewBox="0 0 24 24" xmlns="http://www.w3.org/2000/svg"><g><path d="m13.89 19.59h-6.63a1.63 1.63 0 0 1 -1.63-1.59v-12a1.63 1.63 0 0 1 1.63-1.59h6.63a.75.75 0 0 0 0-1.5h-6.63a3.13 3.13 0 0 0 -3.13 3.09v12a3.13 3.13 0 0 0 3.13 3.13h6.63a.75.75 0 1 0 0-1.5z"/><path d="m19.65 11.47-3.51-3.47a.75.75 0 1 0 -1.06 1l2.23 2.23h-6.91a.75.75 0 1 0 0 1.5h6.91l-2.23 2.27a.75.75 0 0 0 0 1.06.79.79 0 0 0 .53.22.77.77 0 0 0 .53-.22l3.51-3.51a.75.75 0 0 0 0-1.08z"/></g></svg>

<svg viewBox="0 0 24 24" xmlns="http://www.w3.org/2000/svg"><g><path d="M13.89 19.59H7.26A1.63 1.63 0 015.63 18V6a1.63 1.63 0 011.63-1.59h6.63a.75.75 0 000-1.5H7.26A3.13 3.13 0 004.13 6v12a3.13 3.13 0 003.13 3.13h6.63a.75.75 0 100-1.5z"/><path d="M19.65 11.47L16.14 8a.75.75 0 10-1.06 1l2.23 2.23H10.4a.75.75 0 100 1.5h6.91L15.08 15a.75.75 0 000 1.06.79.79 0 00.53.22.77.77 0 00.53-.22l3.51-3.51a.75.75 0 000-1.08z"/></g></svg>
